X:1
T:The Cobbler
C:Traditional
M:6/8
L:1/8
Q:3/8=126
K:G
D|G>Bd efd|gfe dBG|AB/2A/2 GFG|FAd B2A|
GBd e>fg|gfe dcB|FGA B/2A/2G F|GAB G3|
d|gbg agf|gdB GBd|efg fed|efg g>fe|
gfe dcB|ABc d2c|BAG FGA|GAB G3|]
